svgs/solid/book-bible.svg

<svg xmlns="http://www.w3.org/2000/svg" viewBox="0 0 448 512"><!--! Font Awesome Free 6.7.2 by @fontawesome - https://fontawesome.com License - https://fontawesome.com/license/free (Icons: CC BY 4.0, Fonts: SIL OFL 1.1, Code: MIT License) Copyright 2024 Fonticons, Inc. --><path d="M96 0C43 0 0 43 0 96L0 416c0 53 43 96 96 96l288 0 32 0c17.7 0 32-14.3 32-32s-14.3-32-32-32l0-64c17.7 0 32-14.3 32-32l0-320c0-17.7-14.3-32-32-32L384 0 96 0zm0 384l256 0 0 64L96 448c-17.7 0-32-14.3-32-32s14.3-32 32-32zM208 80c0-8.8 7.2-16 16-16l32 0c8.8 0 16 7.2 16 16l0 48 48 0c8.8 0 16 7.2 16 16l0 32c0 8.8-7.2 16-16 16l-48 0 0 112c0 8.8-7.2 16-16 16l-32 0c-8.8 0-16-7.2-16-16l0-112-48 0c-8.8 0-16-7.2-16-16l0-32c0-8.8 7.2-16 16-16l48 0 0-48z"/></svg>

<svg xmlns="http://www.w3.org/2000/svg" viewBox="0 0 448 512"><!--! Font Awesome Free 6.5.1 by @fontawesome - https://fontawesome.com License - https://fontawesome.com/license/free (Icons: CC BY 4.0, Fonts: SIL OFL 1.1, Code: MIT License) Copyright 2023 Fonticons, Inc. --><path d="M96 0C43 0 0 43 0 96V416c0 53 43 96 96 96H384h32c17.7 0 32-14.3 32-32s-14.3-32-32-32V384c17.7 0 32-14.3 32-32V32c0-17.7-14.3-32-32-32H384 96zm0 384H352v64H96c-17.7 0-32-14.3-32-32s14.3-32 32-32zM208 80c0-8.8 7.2-16 16-16h32c8.8 0 16 7.2 16 16v48h48c8.8 0 16 7.2 16 16v32c0 8.8-7.2 16-16 16H272V304c0 8.8-7.2 16-16 16H224c-8.8 0-16-7.2-16-16V192H160c-8.8 0-16-7.2-16-16V144c0-8.8 7.2-16 16-16h48V80z"/></svg>
